rfk-compact-logo.svg

<?xml version="1.0" standalone="no"?>
<!DOCTYPE svg PUBLIC "-//W3C//DTD SVG 1.0//EN" "http://www.w3.org/TR/2001/REC-SVG-20010904/DTD/svg10.dtd">
<svg xmlns="http://www.w3.org/2000/svg" xmlns:xlink="http://www.w3.org/1999/xlink" id="body_1" width="73" height="55">

<g transform="matrix(0.21530633 0 0 0.21530633 12.718341 -0)">
	<g>
		<g>
            <path d="M136.81 164.73C 149.41 164.73 154.55 159.40999 156.64 151.84L156.64 151.84L135.19 146.62999L135.19 164.73L136.81 164.73z" stroke="none" fill="#71BBCC" fill-rule="nonzero" />
            <path d="M179 157.27C 176.91 164.86 172.7 171.63 164.16 177.09L164.16 177.09L187.89 215.54999L187.89 219.04999L163 219.04999L143.8 185.21C 140.94952 185.62209 138.06898 185.78937 135.19 185.71L135.19 185.71L135.19 219.05L112.46 219.05L112.46 141.11L102.869995 138.78L104.49 219.04999L82.39 219.04999L80.68 134.4C 80.68 134.06 80.68 133.72667 80.68 133.4L80.68 133.4L55.48 127.27999L57.12 219.06999L34.74 219.06999C 34.74 203.79999 34.27 162.26999 33.820004 122.01999L33.820004 122.01999L0 113.79L0 229.35L107.46 255.45001L220.91 255.45001L220.91 167.45001L179 157.27z" stroke="none" fill="#71BBCC" fill-rule="nonzero" />
            <path d="M80.68 92.58L80.68 67.07C 80.68 61.67 77.68 56.309998 71.36 56.25C 66.12 56.13 60.63 56.25 55.36 56.25L55.36 56.25L55.36 103.54L71.36 103.54C 77.45 103.54 80.63 98.05 80.68 92.58z" stroke="none" fill="#EF738B" fill-rule="nonzero" />
            <path d="M71.36 123.51C 66.12 123.39 55.36 123.51 55.36 123.51L55.36 123.51L55.43 127.26L80.630005 133.38C 80.33 128.32 77.3 123.57 71.36 123.51z" stroke="none" fill="#EF738B" fill-rule="nonzero" />
            <path d="M33 36.27L71.36 36.27C 92.270004 36.350002 102.75 51.690002 102.78 67.07L102.78 67.07L102.78 92.58C 102.84615 100.243385 100.12775 107.67014 95.13 113.48C 100.14664 119.29056 102.86723 126.733955 102.78 134.41L102.78 134.41L102.869995 138.78L112.45999 141.11L112.45999 131.65L135.18999 131.65L135.18999 146.65L156.63998 151.86C 158.24998 146.01 158.03998 138.8 158.03998 131.67L158.03998 131.67L158.09998 103.33L181.25998 103.33L181 131.65C 181 140.72 181.13 149.43 179 157.26999L179 157.26999L220.92 167.45999L220.92 26.1L113.45 0L0 0L0 113.79L33.82 122C 33.42 85.56 33 50.16 33 36.27zM112.43 36.27L181.23001 36.27L181.23001 56.27L135.19 56.27L135.19 75.36L181.26001 75.36L181.26001 95.36L135.19 95.36L135.19 123.71L112.46 123.71z" stroke="none" fill="#EF738B" fill-rule="nonzero" />
            <path d="M181 131.65L181.25 103.31L158.1 103.31L158 131.65C 158 138.78 158.21 145.98999 156.6 151.84C 154.51001 159.41 149.37001 164.73 136.77 164.73L136.77 164.73L135.15001 164.73L135.15001 131.65L112.46 131.65L112.46 219.04999L135.19 219.04999L135.19 185.71C 138.06898 185.78937 140.94952 185.62209 143.8 185.21L143.8 185.21L163 219.05L187.85 219.05L187.85 215.55L164.12001 177.09C 172.66 171.62999 176.87001 164.86 178.96 157.26999C 181.14 149.43 181 140.72 181 131.65z" stroke="none" fill="#FFFFFF" fill-rule="nonzero" />
            <path d="M135.19 95.33L181.26001 95.33L181.26001 75.33L135.19 75.33L135.19 56.25L181.26001 56.25L181.26001 36.25L112.46001 36.25L112.46001 123.66L135.19 123.66L135.19 95.33z" stroke="none" fill="#FFFFFF" fill-rule="nonzero" />
            <path d="M95.13 113.48C 100.12775 107.67014 102.84615 100.243385 102.78 92.58L102.78 92.58L102.78 67.07C 102.78 51.69 92.27 36.35 71.36 36.27L71.36 36.27L33 36.27C 33 50.16 33.39 85.56 33.79 122C 34.24 162.25 34.71 203.78 34.71 219.05L34.71 219.05L57.09 219.05L55.45 127.26L55.38 123.51C 55.38 123.51 66.12 123.39 71.380005 123.51C 77.32001 123.57 80.380005 128.32 80.670006 133.38C 80.67001 133.72 80.67001 134.05334 80.670006 134.38L80.670006 134.38L82.380005 219.03L104.48 219.03L102.86 138.76001L102.770004 134.39001C 102.85512 126.722115 100.13844 119.286835 95.13 113.48zM55.38 56.25C 60.63 56.25 66.12 56.13 71.380005 56.25C 77.69 56.31 80.72 61.67 80.700005 67.07L80.700005 67.07L80.700005 92.58C 80.65 98.05 77.47 103.58 71.380005 103.58L71.380005 103.58L55.380005 103.58z" stroke="none" fill="#FFFFFF" fill-rule="nonzero" />
		</g>
	</g>
</g>
</svg>

<svg xmlns="http://www.w3.org/2000/svg" viewBox="0 0 220.91 255.45"><defs><style>.cls-1{fill:#71bbcc;}.cls-2{fill:#ef738b;}.cls-3{fill:#fff;}</style></defs><g id="Calque_2" data-name="Calque 2"><g id="RFRK_logo_basic"><path class="cls-1" d="M136.81,164.73c12.6,0,17.74-5.32,19.83-12.89l-21.45-5.21v18.1Z"/><path class="cls-1" d="M179,157.27c-2.09,7.59-6.3,14.36-14.84,19.82l23.73,38.46v3.5H163L143.8,185.21a50.46,50.46,0,0,1-8.61.5v33.34H112.46V141.11l-9.59-2.33,1.62,80.27H82.39L80.68,134.4q0-.51,0-1l-25.2-6.12,1.64,91.79H34.74c0-15.27-.47-56.8-.92-97.05L0,113.79V229.35l107.46,26.1H220.91v-88Z"/><path class="cls-2" d="M80.68,92.58V67.07c0-5.4-3-10.76-9.32-10.82-5.24-.12-10.73,0-16,0v47.29h16C77.45,103.54,80.63,98.05,80.68,92.58Z"/><path class="cls-2" d="M71.36,123.51c-5.24-.12-16,0-16,0l.07,3.75,25.2,6.12C80.33,128.32,77.3,123.57,71.36,123.51Z"/><path class="cls-2" d="M33,36.27H71.36c20.91.08,31.39,15.42,31.42,30.8V92.58a31.63,31.63,0,0,1-7.65,20.9,31.48,31.48,0,0,1,7.65,20.93l.09,4.37,9.59,2.33v-9.46h22.73v15l21.45,5.21c1.61-5.85,1.4-13.06,1.4-20.19l.06-28.34h23.16L181,131.65c0,9.07.13,17.78-2,25.62l41.92,10.19V26.1L113.45,0H0V113.79L33.82,122C33.42,85.56,33,50.16,33,36.27Zm79.43,0h68.8v20H135.19V75.36h46.07v20H135.19v28.35H112.46Z"/><path class="cls-3" d="M181,131.65l.25-28.34H158.1L158,131.65c0,7.13.21,14.34-1.4,20.19-2.09,7.57-7.23,12.89-19.83,12.89h-1.62V131.65H112.46v87.4h22.73V185.71a50.46,50.46,0,0,0,8.61-.5L163,219.05h24.85v-3.5l-23.73-38.46c8.54-5.46,12.75-12.23,14.84-19.82C181.14,149.43,181,140.72,181,131.65Z"/><path class="cls-3" d="M135.19,95.33h46.07v-20H135.19V56.25h46.07v-20h-68.8v87.41h22.73Z"/><path class="cls-3" d="M95.13,113.48a31.63,31.63,0,0,0,7.65-20.9V67.07c0-15.38-10.51-30.72-31.42-30.8H33c0,13.89.39,49.29.79,85.73.45,40.25.92,81.78.92,97.05H57.09l-1.64-91.79-.07-3.75s10.74-.12,16,0c5.94.06,9,4.81,9.29,9.87q0,.51,0,1l1.71,84.65h22.1l-1.62-80.27-.09-4.37A31.48,31.48,0,0,0,95.13,113.48ZM55.38,56.25c5.25,0,10.74-.12,16,0,6.31.06,9.34,5.42,9.32,10.82V92.58c-.05,5.47-3.23,11-9.32,11h-16Z"/></g></g></svg>
